X:1
T:The Owl
R:Reel
M:C|
L:1/8
K:Hp
N:From the North American Association of Lowland and Border Pipers
N:Journal No. 7. 
{g}A{d}A{g}eA {g}fA{g}eg | {a}G{d}G{g}dB ge{gde}dB |\
{g}A{d}A{g}eA {g}fA{g}eg | {a}G{d}G{g}Bd {g}eA{d}Ae :|
{ag}a2ea {g}ae{g}c{d}A | {gf}g2{a}dg {a}Bg{a}G2 |\
{ag}a2ea {g}ae{g}c{d}A | {g}dG{g}Bd {g}eA{d}Ag |
{ag}a2ea {g}ae{g}c{d}A | {gf}g2{a}dg {a}Bg{a}Gg |\
{ag}a2ea {g}ae{g}c{d}A | {g}dG{g}Bd {g}eA{d}Ae |]
